X:1
T:五十番練習曲(1)
T:Fifty Lessons for Medium Voice, Op.9 
T:No.1 
T:Concone 
%%score 1 { ( 2 5 ) | ( 3 4 ) }
L:1/8
Q:1/4=88
M:4/4
K:C
V:1 treble nm="Voice"
V:2 treble nm="Piano"
V:5 treble 
V:3 bass 
V:4 bass 
V:1
"^Moderato"!p!!<(! (C4 D4!<)! |!mp!!>(! E3 F G2) z2!>)! |!p!!<(! (A4 B4!<)! | %3
!mp!!>(! c3 d !breath!e2)!>)! z2 |!mp!!>(! (e6 d2 | !breath!c6 B2!>)! |"_dim." A6 F2 | %7
!p! E4 D2) z2 |!p!!<(! (G4 B4!<)! |!mp!!>(! c4 G2)!>)!!p! z2 |!mp!!>(! (d4 G4!>)! | %11
!mp!!>(! e4 c2)!>)! z2 |!p!!<(! (G4 B4!<)! |!mp!!>(! c4 G2)!>)! z2 | %14
!p!!<(! (F2 G2)!<)!!p!!<(! (E2 G2)!<)! |!mp!!>(! D6!>)! z2 |!p!!<(! (C4 D4!<)! | %17
!mp!!>(! E3 F G2)!>)! z2 |!p!!<(! (A4 B4!<)! |!>(! c3 d e2)!>)! z2 |!mp!!>(! (e6 d2!>)! | %21
 !breath!c6)!p!!<(! (A2!<)! |!mp!!>(! G8 |!p! C2)!>)! z2 z4 |] %24
V:2
!p!!<(! (C4 D4!<)! |!>(! [CE]3 [DF] [EG]2) z2!>)! |!p!!<(! ([FA]4 [DFB]4!<)! | %3
!mp!!>(! [Ec]3 [FGd] [EGe]2) z2!>)! |!mp!!>(! ([EGe]6 [FGd]2 | [EGc]6!>)!!p! [DEB]2 | [EA]4 A2 F2 | %7
 [CE]4 [B,D]2) z2 | [G,DF]8 | [G,CE]8 | [G,B,F]8 | [G,CE]8 | [G,B,F]8 | [G,CE]8 | %14
!p!!<(! ([DF]2 [G,G]2)!<)!!mp!!>(! ([CE]2 [G,G]2)!>)! |!p! [B,D]4- [B,D]2 z2 |!p!!<(! (C4 D4!<)! | %17
!mp!!>(! [CE]3 [DF] [EG]2)!>)! z2 |!p! ([FA]4"_cresc." [DFB]4 | [Ec]3 [FGd] [EGe]2) z2 | %20
!mp!!>(! [EGe]6 [FBd]2 | [Ec]6!>)!!p!!<(! [FA]2!<)! |!mp!!>(! ([EG]2 [CE]2) ([DF]2 [G,D]2)!>)! | %23
!p! [E,C]4 z4 |] %24
V:3
!ped! E,4 B,,4!ped-up! |!ped! C,2 C,2 C,2 C,2!ped-up! |!ped! C,2 C,2 C,2 C,2!ped-up! | %3
!ped! C,2 C,2 C,2 C,2!ped-up! |!ped! (C,,2 E,,2 G,,2 B,,2!ped-up! | %5
!ped! C,2) (E,2 G,2 ^G,2!ped-up! |!ped! A,2 =G,2 F,2 F,,2)!ped-up! | %7
!ped! (G,,2 C,E,!ped-up! G,2) z2 |!ped! G,,2 G,,2 G,,2 G,,2!ped-up! | %9
!ped! G,,2 G,,2 G,,2 G,,2!ped-up! |!ped! G,,2 G,,2 G,,2 G,,2!ped-up! | %11
!ped! G,,2 G,,2 G,,2 G,,2!ped-up! |!ped! G,,2 G,,2 G,,2 G,,2!ped-up! | %13
!ped! G,,2 G,,2 G,,2 G,,2!ped-up! |!ped! [G,,,G,,]8!ped-up! |!ped! [G,,,G,,]4 (G,,2 G,2)!ped-up! | %16
!ped! E,4 B,,4!ped-up! |!ped! C,2 C,2 C,2 C,2!ped-up! |!ped! C,2 C,2 C,2 C,2!ped-up! | %19
!ped! C,2 C,2 C,2 C,2!ped-up! |!ped! (C,,2 E,,2 G,,2 ^G,,2)!ped-up! | %21
!ped! (A,,2 A,,,2 A,,2 F,,2)!ped-up! |!ped! (G,,8!ped-up! |!ped! [C,,C,]4) z4!ped-up! |] %24
V:4
 (E,2 C,2 B,,2 G,,2) | C,,8 | C,,8 | C,,8 | x8 | x8 | x8 | x8 | G,,,8 | G,,,8 | G,,,8 | G,,,8 | %12
 G,,,8 | G,,,8 | x8 | x8 | (E,2 C,2 B,,2 G,,2) | C,,8 | C,,8 | C,,8 | x8 | x8 | x8 | x8 |] %24
V:5
 x8 | x8 | x8 | x8 | x8 | x8 | C2 ^C2 D4 | x8 | x8 | x8 | x8 | x8 | x8 | x8 | x8 | x8 | x8 | x8 | %18
 x8 | x8 | x8 | x8 | x8 | x8 |] %24

